app/assets/images/heroicons/mini/arrow-turn-up-left.svg

<svg width="20" height="20" viewBox="0 0 20 20" fill="none" xmlns="http://www.w3.org/2000/svg">
<path fill-rule="evenodd" clip-rule="evenodd" d="M16.25 17C15.8358 17 15.5 16.6642 15.5 16.25V8.75H4.56066L6.53033 10.7197C6.82322 11.0126 6.82322 11.4874 6.53033 11.7803C6.23744 12.0732 5.76256 12.0732 5.46967 11.7803L2.21967 8.53033C1.92678 8.23744 1.92678 7.76256 2.21967 7.46967L5.46967 4.21967C5.76256 3.92678 6.23744 3.92678 6.53033 4.21967C6.82322 4.51256 6.82322 4.98744 6.53033 5.28033L4.56066 7.25H16.25C16.6642 7.25 17 7.58579 17 8V16.25C17 16.6642 16.6642 17 16.25 17Z" fill="black"/>
</svg>

<svg xmlns="http://www.w3.org/2000/svg" viewBox="0 0 20 20" fill="currentColor" aria-hidden="true" data-slot="icon">
  <path fill-rule="evenodd" d="M16.25 17a.75.75 0 0 1-.75-.75v-7.5H4.56l1.97 1.97a.75.75 0 1 1-1.06 1.06L2.22 8.53a.75.75 0 0 1 0-1.06l3.25-3.25a.75.75 0 0 1 1.06 1.06L4.56 7.25h11.69A.75.75 0 0 1 17 8v8.25a.75.75 0 0 1-.75.75Z" clip-rule="evenodd"/>
</svg>
